X:391
T:Roast Beef
S:Bruce & Emmett's Drummers and Fifers Guide (1862), p. 39
M:6/8
L:1/8
K:D
%%MIDI program 72
%%MIDI transpose 8
%%MIDI ratio 3 1
(3(A/B/c/)|dfd cde|fdf edc|dfd cBA|BGB A2(3(A/B/c/)|dfd cde|fdf efg|
afd ecA|BA^G A2d/c/|BGB dcB|AFD T(B3|A)gf edc|dfa AGF|
GAB Adc|d2z z2d/c/|GBG dcB|AFD T(B3|A)gf edc|dfa AGF|GAB Adc|d2z z2||
